icons/svg/sport/orienteering.svg

<?xml version="1.0" encoding="UTF-8" standalone="no"?>
<!-- Created with Inkscape (http://www.inkscape.org/) -->

<svg
   xmlns:dc="http://purl.org/dc/elements/1.1/"
   xmlns:cc="http://creativecommons.org/ns#"
   xmlns:rdf="http://www.w3.org/1999/02/22-rdf-syntax-ns#"
   xmlns:svg="http://www.w3.org/2000/svg"
   xmlns="http://www.w3.org/2000/svg"
   xmlns:sodipodi="http://sodipodi.sourceforge.net/DTD/sodipodi-0.dtd"
   xmlns:inkscape="http://www.inkscape.org/namespaces/inkscape"
   version="1.0"
   width="580"
   height="580"
   id="svg2"
   sodipodi:version="0.32"
   inkscape:version="0.91 r"
   sodipodi:docname="orienteering.svg"
   inkscape:output_extension="org.inkscape.output.svg.inkscape">
  <metadata
     id="metadata2975">
    <rdf:RDF>
      <cc:Work
         rdf:about="">
        <dc:format>image/svg+xml</dc:format>
        <dc:type
           rdf:resource="http://purl.org/dc/dcmitype/StillImage" />
        <cc:license
           rdf:resource="http://web.resource.org/cc/PublicDomain" />
        <dc:language>en</dc:language>
        <dc:title />
      </cc:Work>
    </rdf:RDF>
  </metadata>
  <sodipodi:namedview
     inkscape:window-height="739"
     inkscape:window-width="1332"
     inkscape:pageshadow="2"
     inkscape:pageopacity="0.0"
     guidetolerance="10.0"
     gridtolerance="10.0"
     objecttolerance="10.0"
     borderopacity="1.0"
     bordercolor="#666666"
     pagecolor="#ffffff"
     id="base"
     inkscape:zoom="0.32586207"
     inkscape:cx="418.9163"
     inkscape:cy="210.23286"
     inkscape:window-x="34"
     inkscape:window-y="1024"
     inkscape:current-layer="svg2"
     showgrid="false"
     inkscape:window-maximized="1" />
  <defs
     id="defs4">
    <inkscape:perspective
       sodipodi:type="inkscape:persp3d"
       inkscape:vp_x="0 : 290 : 1"
       inkscape:vp_y="0 : 1000 : 0"
       inkscape:vp_z="580 : 290 : 1"
       inkscape:persp3d-origin="290 : 193.33333 : 1"
       id="perspective10" />
  </defs>
  <g
     id="g1327">
    <path
       d="M 66.275,1.768 C 24.94,1.768 1.704,23.139 1.704,66.804 l 0,450.123 c 0,40.844 20.895,62.229 62.192,62.229 l 452.024,0 c 41.307,0 62.229,-20.315 62.229,-62.229 l 0,-450.123 c 0,-42.601 -20.922,-65.036 -63.521,-65.036 -0.004,0 -448.495,-0.143 -448.353,0 z"
       style="fill:#111111;stroke:#eeeeee;stroke-width:3.40799999"
       id="path1329"
       inkscape:connector-curvature="0" />
  </g>
  <circle
     cx="443.44189"
     cy="166.04817"
     r="40.734806"
     id="circle3"
     style="fill:#ffffff;fill-opacity:1;stroke-width:2.00000453;stroke-miterlimit:10;stroke-dasharray:none" />
  <path
     style="color:#000000;font-style:normal;font-variant:normal;font-weight:normal;font-stretch:normal;font-size:medium;line-height:normal;font-family:sans-serif;text-indent:0;text-align:start;text-decoration:none;text-decoration-line:none;text-decoration-style:solid;text-decoration-color:#000000;letter-spacing:normal;word-spacing:normal;text-transform:none;direction:ltr;block-progression:tb;writing-mode:lr-tb;baseline-shift:baseline;text-anchor:start;white-space:normal;clip-rule:nonzero;display:inline;overflow:visible;visibility:visible;opacity:1;isolation:auto;mix-blend-mode:normal;color-interpolation:sRGB;color-interpolation-filters:linearRGB;solid-color:#000000;solid-opacity:1;fill:#ffffff;fill-opacity:1;fill-rule:nonzero;stroke:none;stroke-width:43.96500015;stroke-linecap:round;stroke-linejoin:miter;stroke-miterlimit:10;stroke-dasharray:none;stroke-dashoffset:0;stroke-opacity:1;color-rendering:auto;image-rendering:auto;shape-rendering:auto;text-rendering:auto;enable-background:accumulate"
     d="m 292.72361,373.79566 -5.76729,7.68911 c -4.42412,5.49715 -11.22305,8.60479 -16.63773,8.60479 l -91.65231,0 c -11.36327,-0.1636 -20.6627,9.00294 -20.6627,20.36738 0,11.36443 9.29943,20.53097 20.6627,20.36738 l 91.65231,0 c 19.00959,0 36.62175,-9.09914 48.49264,-23.93778 l 0.19906,-0.24793 6.30113,-8.40211 z"
     id="path5"
     inkscape:connector-curvature="0"
     sodipodi:nodetypes="ccscscscccc" />
  <path
     style="fill:none;stroke:#ffffff;stroke-width:40.73490524;stroke-linecap:round;stroke-linejoin:miter;stroke-miterlimit:10;stroke-dasharray:none;stroke-opacity:1"
     inkscape:connector-curvature="0"
     stroke-miterlimit="10"
     d="m 239.76784,247.51779 c 0,0 42.77154,-20.36739 65.1757,-32.58783 10.1837,-4.07349 20.36739,-6.11023 30.55109,-2.03675 l 26.47763,8.14697 34.6246,16.29393 c 8.14696,4.07347 14.25717,10.18368 18.33065,18.33065 l 16.29393,32.58785 c 6.11021,14.25717 20.36741,22.40414 36.66133,22.40414 24.44088,0 59.06547,0 59.06547,0"
     id="path7" />
  <path
     inkscape:connector-curvature="0"
     d="m 355.86204,227.1504 -48.88177,85.5431 c -10.18369,18.33066 -6.11023,40.73481 10.18371,54.99199 l 79.43288,57.02874 -24.44089,-59.06548 c 0,0 -16.29393,2.03674 -12.22046,-4.07348 L 419.00099,255.66476 355.86204,227.1504 Z"
     id="path9"
     style="fill:#ffffff;fill-opacity:1;stroke-width:43.96500015;stroke-miterlimit:10;stroke-dasharray:none" />
  <path
     inkscape:connector-curvature="0"
     d="m 380.30293,430.82444 -38.69807,101.83703 c 0,0 -2.48033,16.76441 18.45369,17.08952 20.93403,0.32509 24.31785,-17.08952 24.31785,-17.08952 l 34.62459,-87.57985 c 8.14697,-22.40413 4.07348,-48.88176 -14.25717,-65.17569 l -48.88178,-48.88177 -28.51436,28.51436 48.88176,48.88178 c 6.11023,6.11022 8.14696,14.25719 4.07349,22.40414 z"
     id="path11"
     style="fill:#ffffff;fill-opacity:1;stroke-width:43.96500015;stroke-miterlimit:10;stroke-dasharray:none"
     sodipodi:nodetypes="cczcccccsc" />
  <path
     id="path5-9"
     d="m 214.09378,124.65447 c 0,45.49416 -37.01918,82.49653 -82.50493,82.49653 -45.485755,0 -82.496527,-37.01918 -82.496527,-82.50493 0,-45.485748 37.010772,-82.496514 82.496527,-82.496514 45.48575,0 82.50493,37.010766 82.50493,82.504914 z M 131.58894,20.093671 c -57.743824,0 -104.552541,46.808719 -104.552541,104.552519 0,57.74381 46.808717,104.56069 104.552541,104.56069 57.7438,0 104.56068,-46.81688 104.56068,-104.56069 0,-57.7438 -46.81688,-104.552519 -104.56068,-104.552519 z"
     inkscape:connector-curvature="0"
     style="fill:#ffffff;fill-opacity:1"
     sodipodi:nodetypes="ssscssssss" />
  <path
     inkscape:connector-curvature="0"
     style="fill:#ffffff;fill-opacity:1"
     d="m 106.96564,124.63368 24.62747,80.83174 24.63509,-80.82412 -24.6351,-80.824114 -24.62746,80.816494 z m 34.21328,9.60106 c -5.29582,5.29582 -13.87581,5.29582 -19.17163,0 -5.29582,-5.29582 -5.29582,-13.87581 0,-19.17163 5.29582,-5.29582 13.87581,-5.29582 19.17163,0 5.29583,5.29582 5.29583,13.87581 0,19.17163 z"
     id="path27" />
</svg>

<svg width="580" height="580" viewBox="0 0 580 580" fill="none" xmlns="http://www.w3.org/2000/svg">
<g clip-path="url(#clip0)">
<path d="M66.2751 1.76815C24.9401 1.76815 1.7041 23.1391 1.7041 66.8041V516.927C1.7041 557.771 22.5991 579.156 63.8961 579.156H515.92C557.227 579.156 578.149 558.841 578.149 516.927V66.8041C578.149 24.2031 557.227 1.76815 514.628 1.76815C514.624 1.76815 66.1331 1.62515 66.2751 1.76815V1.76815Z" fill="#111111" stroke="#EEEEEE" stroke-width="3.408"/>
<path d="M443.442 206.783C465.939 206.783 484.177 188.545 484.177 166.048C484.177 143.551 465.939 125.313 443.442 125.313C420.945 125.313 402.707 143.551 402.707 166.048C402.707 188.545 420.945 206.783 443.442 206.783Z" fill="white"/>
<path d="M292.724 373.796L286.956 381.485C282.532 386.982 275.733 390.09 270.319 390.09H178.666C167.303 389.926 158.004 399.093 158.004 410.457C158.004 421.822 167.303 430.988 178.666 430.825H270.319C289.328 430.825 306.94 421.725 318.811 406.887L319.01 406.639L325.312 398.237L292.724 373.796Z" fill="white"/>
<path d="M239.768 247.518C239.768 247.518 282.54 227.15 304.944 214.93C315.127 210.857 325.311 208.82 335.495 212.893L361.972 221.04L396.597 237.334C404.744 241.408 410.854 247.518 414.928 255.665L431.222 288.253C437.332 302.51 451.589 310.657 467.883 310.657C492.324 310.657 526.948 310.657 526.948 310.657" stroke="white" stroke-width="40.7349" stroke-miterlimit="10" stroke-linecap="round"/>
<path d="M355.862 227.15L306.98 312.693C296.797 331.024 300.87 353.428 317.164 367.685L396.597 424.714L372.156 365.649C372.156 365.649 355.862 367.685 359.936 361.575L419.001 255.665L355.862 227.15Z" fill="white"/>
<path d="M380.303 430.825L341.605 532.662C341.605 532.662 339.125 549.426 360.059 549.751C380.993 550.076 384.376 532.662 384.376 532.662L419.001 445.082C427.148 422.678 423.074 396.2 404.744 379.906L355.862 331.024L327.348 359.539L376.229 408.421C382.34 414.531 384.376 422.678 380.303 430.825V430.825Z" fill="white"/>
<path d="M214.094 124.655C214.094 170.149 177.075 207.151 131.589 207.151C86.1031 207.151 49.0923 170.132 49.0923 124.646C49.0923 79.1604 86.1031 42.1496 131.589 42.1496C177.075 42.1496 214.094 79.1604 214.094 124.655ZM131.589 20.0938C73.8451 20.0938 27.0364 66.9025 27.0364 124.646C27.0364 182.39 73.8451 229.207 131.589 229.207C189.333 229.207 236.15 182.39 236.15 124.646C236.15 66.9025 189.333 20.0938 131.589 20.0938V20.0938Z" fill="white"/>
<path d="M106.966 124.634L131.593 205.466L156.228 124.641L131.593 43.8174L106.966 124.634V124.634ZM141.179 134.235C135.883 139.531 127.303 139.531 122.007 134.235C116.711 128.939 116.711 120.359 122.007 115.063C127.303 109.767 135.883 109.767 141.179 115.063C146.475 120.359 146.475 128.939 141.179 134.235Z" fill="white"/>
</g>
<defs>
<clipPath id="clip0">
<path d="M0 0H580V580H0V0Z" fill="white"/>
</clipPath>
</defs>
</svg>
